X:1
T:El Puerto
T:RONDEÑA à Blanche Selva 
T:Isaac Albéniz
T:No. 4, from Book 2 of the Collection for Piano: IBERIA (12 Impresiones Españolas) 
%%score { ( 1 2 6 7 ) | ( 3 4 5 ) }
L:1/8
Q:3/8=116
M:6/8
K:D
V:1 treble nm="Piano"
V:2 treble 
V:6 treble 
V:7 treble 
V:3 bass 
V:4 bass 
V:5 bass 
V:1
"^Allegretto.  M.M.""^page 35"!mf! z!>(! !>!A2- A3-!>)! |[M:3/4] A z"_sec  et  précis" x4 | %2
[M:6/8]!mf! z!>(! !>!A2- A3-!>)! |[M:3/4] A z!mp! x4 |[M:6/8]!mf! z!>(! !>!c2- c A2- | %5
[M:3/4] A!>)! z!mp! x4 |[M:6/8]!mf! z!>(! !>!c2- c A2- |[M:3/4] A!>)! z!mp! x4 | %8
[M:6/8]!f! z!>(! !>!e2 !>!d2!>)! .B |[M:3/4] G z!mf! .g z .g z | %10
[M:6/8]!f! z!>(! !>!e2 !>!d2!>)! .B |[M:3/4] G z!mf! .g z .g z | %12
[M:6/8] z!>(! a-a/!>)! z/ z!>(! a-a/!>)! z/ |[M:3/4] z2 .[=ce=c'] z .[^cg^c'] z | %14
[M:6/8] z!>(! a-a/!>)! z/ z!>(! a-a/!>)! z/ |[M:3/4] z2 .[=ce=c'] z .[^cg^c'] z | %16
[M:6/8]!f![I:staff +1] !>!d"^page 36"[I:staff -1].[Afa][I:staff +1].d[I:staff -1] .e[I:staff +1].d[I:staff -1].[Acg] | %17
[M:3/4] z !>![Aga][I:staff +1] .e[I:staff -1].[Afa][I:staff +1] .d[I:staff -1].[ca] | %18
[M:6/8]"^simplify stems" !>![dd']2 !>!d'2 !>!d'2 | %19
[M:3/4] z !>![Aga]!mf![I:staff +1] .e[I:staff -1].[Afa][I:staff +1] .d[I:staff -1].[ca] | %20
[M:6/8]!f! !>![=cdd']2 !>![cdd']2 !>![dd']2 | %21
[M:3/4] z !>![Aga]!mf![I:staff +1] .e[I:staff -1].[Afa][I:staff +1] .d[I:staff -1].[ca] | %22
[M:6/8]!f! .[Bb] z .[Bb] !>![Gg] z .[Gg] | %23
[M:3/4] z !>![Aga]!mf![I:staff +1] .e[I:staff -1].[Afa][I:staff +1] .d[I:staff -1].[^ca] | %24
[M:6/8]!f! .[Bb] z .[Bb] !>![Gg] z .[Gg] | %25
 z !>![Aga]!mf![I:staff +1] .e[I:staff -1].[Afa][I:staff +1] .d[I:staff -1].[^ca] | %26
[M:6/8]!f! !>![Bb] z .[Bb] !>![Gg] z .[Gg] | z !>!A-A/ z/ z !>!A-A/ z/ | %28
!p!!<(! ([_B,DE][A,=C][B,D]!<)!!>(! [CE][B,D][A,C])!>)! |!f! z !>!A-A/ z/ z !>!A-A/ z/ | %30
!p!!<(! ([_B,DE][A,=C][B,D]!<)!!>(! [CE][B,D][A,C])!>)! |!f! z !>!A-A/ z/ z !>!A-A/ z/ | %32
!p!!<(!!<(! ([_B,DE][A,=C][B,D]!<)!!>(! [CE][B,D][A,C]!>)! | %33
!<(! [_B,D][=CE][A,C] [B,D][CE][D=F])!<)!!<)! |!>(! .[EG].[=FA].[DF] .[EG].[CE].[DF] | %35
 .[_B,D].[=CE].[A,C] .[B,D].[G,B,]!p!.[E,G,]!>)! |[K:bass]!mf!!>(! z"^page 37" A,2- A, z2!>)! | %37
[M:3/4]"_sec  et  précis"!mp! z2 .[_B,,D,_B,] z .[=C,E,=C] z |[M:6/8]!mf!!>(! z A,2- A, z2!>)! | %39
[M:3/4]"_sec  et  précis"!mp! z2 .[_B,,D,_B,] z .[=C,E,=C] z | %40
[M:6/8]"_ben marcato"!p! z!>(! !>!A,-A,/!>)! z/ z!p!!>(! (!>!^CA,/)!>)! z/ | %41
[M:3/4][I:staff +1] !>!A,!mf![I:staff -1]!>![G,=C][I:staff +1] !>!E[I:staff -1]!>![CG][I:staff +1] !>!A,[I:staff -1]!>![G,B,C] | %42
[M:6/8][K:treble]!p! z !>!G-G/ z/ z (!>!E=C/) z/ | %43
[M:3/4][I:staff +1] !>!A,!mf![I:staff -1]!>![=CGA][I:staff +1] !>!E[I:staff -1]!>![CF][I:staff +1] !>!A,[I:staff -1]!>![G,B,C] | %44
[M:6/8][K:bass] z (!>!E=C/) z/ z (!>![E^F]^E/) z/ | z (!>!E=C/)"_dim." z/ z (!>!=DB,/) z/ | %46
 z (D=C/) z/ z (A,F,/) z/ | %47
[M:3/4]!p![I:staff +1] B,,,[I:staff -1].[E,F,G,][I:staff +1] .=C,[I:staff -1].[E,F,A,][I:staff +1] .F,[I:staff -1].[B,,^D,] | %48
[M:6/8][K:treble]!p! .[G,E].B,.[G,E] .[B,G].E.[G,B,] |[M:3/4] ([GA]E) (F^D) ([B=c]B/) z/ | %50
[M:6/8]!f!!<(! .[EAB].F.[=CA] .[E=cd].F.[Ec]!<)! |[M:3/4]!<(! ([de]=c) (g^a) b3/2 z/!<)! | %52
[M:6/8]"_ben staccato" z"^page 38" !>![Bgb].e !>![Bg].e.[Bg] | %53
[M:3/4]!f! ((!>![Bgb]f)) ((!>![Beg]f)) ((!>![^^ce]^d/)) x/ |[M:6/8] e z2 !>!f.e.d | %55
[M:3/4] [^de]!>(! z B z .G!>)!F/ z/ |[M:6/8]!p! z !>![B,GB].E !>![B,G].E.[B,G] | %57
[M:3/4] ((!>![B,GB]F)) ((!>![EG][=DF])) ((!>![=CE]!pp![B,^D])) | %58
[M:6/8][K:bass]!p! !>![=C=D] z C !>!C z C | %59
[M:3/4]!>(! ((!>![G,=CE][B,^D])) ((!>![G,C][F,B,])) ((!>![E,G,]!pp![^D,F,]))!>)! | %60
[M:6/8]!p!!<(! !>![E,G,] z .G,!<)!!>(! .G,.G,.G,!>)! | %61
[M:3/4][K:treble] z2 .[A,=C=FA] z .[B,^DB] z | %62
[M:6/8][K:bass]!p!!<(! !>![E,G,] z .G,!<)!!>(! .G,.G,.G,!>)! | %63
[M:3/4][K:treble]!pp! z2 [A,=C=FA] z [B,^DB] z | %64
[M:6/8][K:bass]!<(! [E,G,] z .G,!<)!!>(! .G,.G,.G,!>)! | %65
"_cresc."!mp!!<(! !>![^F,G,=C].E,.[F,G,] .[G,B,].[B,C].[CE]!<)! | %66
[K:treble]"_cresc."!mf!!<(! !>![^FG=c].E.[FG] .[GB].[Bc].[ce]!<)! | %67
[M:3/4]!ff! z2 .[=A=ce=a] z .[B^d^fb] z |[M:6/8] z!mf!!>(! !>!d2- d3-!>)! | %69
[M:3/4]!mp! d"_sec  et  précis" z z2 z2 |[M:6/8] z!>(! !>!d2- d3-!>)! |[M:3/4]!mp! d z z2 z2 | %72
[M:6/8]"_dolce bien rythmé et léger""^page 39"!<(! !>![Gdg].[Gdg].[Gdg] .[Ada].[Bb].[=c=c']!<)! | %73
[M:3/4] .[dgd']!mp! z .[DGd] z .[dgd'] z | %74
[M:6/8]!mf!!<(! !>!P[dgd'].[=c=c'].[dd']!<)!!>(! !>![ege'].[dd'].[cc']!>)! | %75
[M:3/4]!p! .[dgd'] z .[DGd] z .[dgd'] z | %76
[M:6/8] !>!P[dgd']"^C natural\nlike LH and bar 79"!>(!.[!courtesy!=ce!courtesy!=c'].[Bdb] .[A^ca].[GBg].[=FA=f]!>)! | %77
[M:3/4]!p! .[GBg] z .[G,DG] z .[Gdg] z | %78
[M:6/8] !>!P[dgd']!>(!.[=ce=c'].[Bdb] .[A^ca].[GBg].[=FA=f]!>)! | %79
[M:3/4]!f! !>![Gdg] z!f! !>![A,EA] z!f! !>![Ee] z | %80
[M:6/8]!mf!!<(! !>![Aea].[Aea].[Aea] .[Beb].[cc'].[dd']!<)! | %81
[M:3/4] .[eae']!mp! z .[EAe] z .[eae'] z | %82
[M:6/8]!mf!!<(!{[ea]e'} !>![eae'].[dd'].[ee']!<)!!>(! .[faf'].[ee'].[dd']!>)! | %83
[M:3/4] .[eae']!mp! z .[EAe] z .[eae'] z | %84
[M:6/8]!>(!{[e=g]e'} !>![ege'].[d^fd'].[=ce=c'] .[Bdfb].[Aca].[Gg]!>)! | %85
[M:3/4]!f! .[Acea]!mp! z .[A,EA] z .[Aea] z | %86
[M:6/8]!>(!{[eg]e'} !>![ege'].[dfd'].[^ce^c'] .[Bdb].[GBg].[Aca]!>)! | %87
[M:3/4] .[Bfb]!mp! z .[B,FB] z .[FBf] z | %88
[M:6/8]"_cresc."!f!!<(!{[fa]f'} !>![faf'].[e^ge'].[^df^d'] .[cec'].[dfd'].[^Bd^b]!<)! | %89
!ff! (!>![cc']e)!>(! ([B^db][Q:1/4=169]"^169" [^GB^g][FAf][^DF^d])!>)! | %90
[Q:1/4=79]"^79"!fff!{[ac']a'} !>![ac'a'][Q:1/4=159]"^159"!>(!.[^gb^g'].[faf']"_rit." .[e^ge'].[^df^d'].[cec'] | %91
[Q:1/4=149]"^149" !tenuto![^B^d^b]!tenuto![ABa]!tenuto![^G=B^g][Q:1/4=129]"^129" !tenuto![FAf]!tenuto![EGe][Q:1/4=79]"^79"!tenuto![^DF^d]!>)! | %92
"^Poco meno mosso"!p!"^page 40" !tenuto![CEAc]6-[Q:1/4=112] |[M:3/4] [CEAc]6- | %94
[M:6/8] [CEAc] z z2 z2 |[M:3/4] (^G,2 [E,DE]2 G,3/2) z/ |[M:6/8] z ([E,A,DE]C [E,A,DE]C[E,A,DE]) | %97
[M:3/4] (C2 [E,A,DE]2 C3/2) z/ |[M:6/8] z ([E,_B,DE]=C [E,B,DE]C[E,B,DE]) | %99
[M:3/4] (=C2 [E,_B,DE]2 C3/2) z/ |[M:6/8] z ([E,A,DE]^C [E,A,DE]C[E,A,DE]) | %101
[M:3/4]!p! (C2 [E,A,DE]2 C3/2)!pp! !fermata!z/ | %102
[M:6/8]"^expressivo"!mf! z!<(! !tenuto!C!tenuto!C (2:3:2!tenuto!C!tenuto!C | %103
 (4:6:3C!<)!!>(! !>!C2 B, | A,6-!>)! |[M:3/4] A,6 | %106
[M:6/8]!mf! z!<(! (!tenuto!C!tenuto!C (2:3:2!tenuto!C!tenuto!C | (4:6:3!tenuto!C!<)!!>(! !>!C2 B, | %108
 A,6-)!>)! |[M:3/4] A,6 | %110
[M:6/8]"_poco cresc."!mf! z!<(! (!tenuto!E!tenuto!E (2:3:2!tenuto!E!tenuto!E | %111
 (4:6:3!tenuto!E!<)!!>(! !>!E2 D | =C6-)!>)! |[M:3/4] =C6 | %114
[M:6/8] z!p!!pp!!<(! (!tenuto!=D!tenuto!D (2:3:2!tenuto!D!tenuto!D | %115
 (4:6:3!tenuto!D!<)!!>(! !>!D2 =C |!p! A,6)!>)! |[M:3/4]"^page 41" A,6 | %118
[M:6/8][Q:1/4=116]"^116" z"^con anima"!<(! (!tenuto!A!tenuto!A (2:3:2!tenuto!A!tenuto!A | %119
 (4:6:3A !>!A2 G!<)! |[Q:1/4=96]"^960"!<(! E6-)[Q:1/4=116] |[M:3/4]!mp! E6!<)! | %122
[M:6/8]!f! z"^add tenuto"!<(! (!tenuto!G!tenuto!G (2:3:2!tenuto!G!tenuto!G | %123
 (4:6:3!tenuto!G !>!G2!<)! x |[Q:1/4=96]"^96"!f! C6-)[Q:1/4=116] |[M:3/4]!>(! ^C6!>)! | %126
[M:6/8]!p! z!<(! !tenuto!D!tenuto!D (2:3:2!tenuto!D!tenuto!D | (4:6:3!tenuto!D!<)! !>!D2 ^C"_" | %128
!mf!!mp! A,6-[Q:1/4=116] | A,6[Q:1/4=108] | %130
[M:6/8]"^poco rubato" z!mf!!>(! =FD[Q:1/4=128]"^128" E=CD!>)! | %131
[Q:1/4=140]"^140"!<(! !tenuto!_B,!tenuto!=C!tenuto!E!<)![Q:1/4=108]"^108"!>(! (2:3:2!tenuto!D!tenuto!C!>)! | %132
!mf![Q:1/4=96]"^96" A,6-[Q:1/4=116] |[M:3/4] A,6[Q:1/4=110] | %134
[M:6/8]"^dolcissimo"[Q:1/4=116]"^116"!p! x!mp! (!tenuto![cec']"^tidy stem directions"!tenuto![cec']!<(! (2:3:2!tenuto![cec']!tenuto![cec'] | %135
 (4:6:3!tenuto![cec']!<)!!>(! !>![cec']2 [Bdb]!>)! | [Aca]6-) |[M:3/4] [Aca]6[Q:1/4=112] | %138
[M:6/8]!mf!"_rit" z !tenuto![_Bd_b]!tenuto![Bdb]!<(! (2:3:2!tenuto![Bdb]!tenuto![Bdb] | %139
 (4:6:3!tenuto![_Bd_b]!<)!!>(! !>![Bdb]2 [A=ca]!>)! |!mf! [=FA=f]6- |[M:3/4]"^page 42" [=FA=f]6 | %142
[M:6/8][Q:1/4=122]"^122" z"_expressivo et vif"!mp!!<(! !tenuto![_G_B_g]!tenuto![GBg] (2:3:2(!tenuto![GBg]!tenuto![GBg]) | %143
 (4:6:3!tenuto![_G_B_g]!<)!!mf!!>(! !>![GBg]2"_poco     à     poco" [=F_A=f] | %144
!p![Q:1/4=88]"^88" [_D=F_d]6-!>)![Q:1/4=116] |[M:3/4]!>(! [DFd]6!>)! | %146
[M:6/8]!mf! z!<(! ([_G_B_g][_A=c_a] [B_d_b][Q:1/4=109]"^109"[c_e=c'][Aca]!<)! | %147
[Q:1/4=94]"^94""_rit             molto"!f!!>(! !tenuto![_B_d_b]!tenuto![_GB_g][Q:1/4=84]"^84"!tenuto![_A=c_a][Q:1/4=69]"^69" (2:3:2[=FA=f]!pp!!breath!!tenuto![_E_G_e])!>)![Q:1/4=54]"^54" || %148
[Q:1/4=174]"^174""^a Tempo IO" z!p! !>!_A2- A3- | %149
[M:3/4] _A!p! z"_sec  et  précis""^add staccato" z2 z2 |[M:6/8]!mp! z!>(! !>!_A2- A3-!>)! | %151
[M:3/4] _A!p! z z2 z2 |[M:6/8]!mp! z!>(! !>!=c2- c _A2-!>)! |[M:3/4] _A!p! z z2 z2 | %154
[M:6/8]!mp! z"^beam and hairpin like bar 151"!>(! !>!=c2- c _A2-!>)! |[M:3/4] A!p! z z2 z2 | %156
[M:6/8]!f!"_cres" z!>(! !>!_e2 !>!_d2 _B!>)! |[M:3/4] _G!mf! z ._g z .g z | %158
[M:6/8]!f! z!>(! (!>!_e2 (!>!_d2) _B)!>)! |[M:3/4]!mf! _G z ._g z .g z | %160
[M:6/8] z !>!_a-a/ z/ z !>!a-a/ z/ |[M:3/4]"^page 43" z2!f! .[=B=d=b] z .[=c_g=c'] z | %162
[M:6/8]!f! z !>!_a-a/ z/ z !>!a-a/ z/ |[M:3/4] z2!f! .[=B=d=b] z [=c_g=c'] z | %164
[M:6/8]!f! .[_d_a_d'] !>!_DD ._E.=F_G |[M:3/4] ._A z .A z ._B z | %166
[M:6/8] ._A!p!!<(! !>!_dd ._e.=f_g!<)! |[M:3/4]!mp! ._a z!mf! .a z"^add flat" .!courtesy!_b z | %168
!f!!<(! _a z ._b z .a z!<)! |!ff! ._b z ._a z .b z | %170
[Q:1/4=169]"^169"!p! (_a2!>(! _b2[Q:1/4=164]"^164""_et    rit." a2 | %171
 _b2[Q:1/4=159]"^159"!pp! _a2[Q:1/4=154]"^154" b2)!>)! | %172
[M:6/8][Q:1/4=174]"^174"[Q:1/4=170]"^a Tempo""_dolce  e  sonoro"!p! (!>![_e=g_b]!>(!=d[=ceg] _B[_ABd]!>)!=D) | %173
[M:3/4]!<(! !>!d2 (!>!dg) !>!_b2!<)! |[M:6/8] ([g=c'_e']!>(!=f[fgc'] d[=cdf]!>)!=F) | %175
[M:3/4] !>!d2 (!>!dg) !>!_b2 |[M:6/8]!mf! (!>![=f_a_d']!>(!_f[_e_g_b] _c[=dfa]!>)!_A) | %177
[M:3/4] =d2 (d=g) _b2 |[M:6/8]!>(! ([g=c'_d']=f[fgc'] =c[cfg][=FG])!>)! | %179
[M:3/4]"^add slur" !>!=c2 !>!Gc =c'2 |[M:6/8]!p! ([=f=a=c']e[dfa] =c[_Bce]E) | %181
[M:3/4]"^page 44" e2 (ea) =c'2 |[M:6/8]!>(! (!>![ga_e']=f[ega] A[Aeg]G)!>)! | %183
[M:3/4] (!>!_eA) (!>!ea) (d'a) |[M:6/8]!mf!!>(! (!>![gbd']f[=egb] d[=cdf]F)!>)! | %185
[M:3/4] f2 (fb) [bd']2 |[M:6/8]!mf!!>(! (!>![ab=f']g[=fab] B[Bfa]A)!>)! | %187
[M:3/4]!f! (=fB) (da) (e'^g) |[M:6/8]!<(! !>![Acea].[Acea].[Acea] .[Be^gb].[cc'].[dd']!<)! | %189
!fff! [c'e']!mf! !>!e2 (!>!de) [^gd'e'] | !>!e2!f! a [^gb]c'd' | [c'e']!mf! !>!e2 !>!de [^gd'e'] | %192
 !>!e2 c' .d'.e'.f' | .[=gc'=g']!mf!!>![d'e'g']c' (!>![ad'e']g)!>![d_bd'] | %194
!fff! x2 d'!mf! !>![d'e']2 !>!d' | x2 d'!mf! !>![d'e']2 !>!d' | %196
[Q:1/4=169]"^169""_poco  riten" x2 d'[Q:1/4=164]"^164"!mf!!8va(! .[e=c'e'].^g[d_bd'] | %197
[Q:1/4=159]"^159"!fff! .[e=c'e'].[d_bd'].[ec'e'][Q:1/4=154]"^154" .[dbd'].[ec'e'].[dbd'] | %198
[Q:1/4=149]"^149" .[^ge'^g'].[fd'f'].[ge'g'][Q:1/4=144]"^144""_rit" .[fd'f'].[ge'g'].[fd'f'] | %199
[Q:1/4=139]"^139" .[_bf'_b']!fff!.[^ge'^g'].[fd'f'][Q:1/4=134]"^134" .[ge'g'].[bg'b'].[d'b'd''] | %200
[Q:1/4=84]"^84" [a'd''f''a'']!8va)![Q:1/4=174]"^174"[Q:1/4=170]"^a Tempo"!>![faf']!>![faf'] (2:3:2!>![faf']!>![ege'] | %201
"^page 45" (2:3:2!>![ege'][dfd']- [dfd']/ z/ !>![dfd'].[dfd'] | %202
!<(! .[d=fd'].[=ce=c'].[dfd']!<)!!>(! .[ege'].[dfd'].[cfc']!>)! | %203
!ff! (2:3:2(!>![_Bd_b][A_da]-) [Ada]/ z/ !>![^F^c^f].[F=cf] | %204
[Q:1/4=164]"^164" z!f!!>(! !>![A=cea]"_poco      a     poco".[Acea] (2:3:2(!>![Acea].[G_Beg]) | %205
"_dim" (2:3:2(!>!gf-) f/!>)! z/[Q:1/4=154]"^154"!mp! (dA) | %206
!p!!<(!{/d} !>![D=c]_B[Ac]!<)!!mp!!>(! [Bd][Ac]!p![GB]!>)! | %207
!>(!{/=c} (!>![F_B]A^E[Q:1/4=144]"^144" [DF]^C[Q:1/4=104]"^104"!tenuto!.[A,D])!>)! | %208
!p![Q:1/4=170]"^a Tempo"[Q:1/4=164]"^164" z (!>![G,=CD]_B,/) z/ z (!>![B,E]D/) z/ | %209
[M:3/4]!f!"^ac     -     cel"[Q:1/4=180]"^180"[I:staff +1] !>!_B,!mf![I:staff -1].[=CDEG][I:staff +1] !>!A,[I:staff -1].[_B,CDE][I:staff +1] !>!G,[I:staff -1].[F,B,D] | %210
[M:6/8]!p![Q:1/4=170]"^a Tempo"[Q:1/4=164]"^164" z (!>![G,=CD]_B,/) z/ z (!>![FG]D/) z/ | %211
[M:3/4]"^ac     -     cel"[Q:1/4=180]"^180"[I:staff +1] !>!E[I:staff -1].[FG_B][I:staff +1] !>!D[I:staff -1].[EFG][I:staff +1] !>!=C[I:staff -1].[_B,DG] | %212
[M:6/8][Q:1/4=170]"^a Tempo"!p![Q:1/4=164]"^164" z"_add slur" (!>![_B,FG]D/) z/ z (!>![FG_B]D/) z/ | %213
[M:3/4]"^ac   -        -          -   cel"[Q:1/4=180]"^180"!f![I:staff +1] !>!G!mf![I:staff -1].[A_Bd][I:staff +1] !>!F[I:staff -1].[GB^c][I:staff +1] !>!E[I:staff -1].[DFGB] | %214
"^e          ritar"[Q:1/4=170]"^170"[I:staff +1] !>!_B,!mp![I:staff -1].[C=DG][Q:1/4=164]"^160"[I:staff +1] !>!D[I:staff -1].[EFG_B][Q:1/4=140]"^142"[I:staff +1] !>!D[I:staff -1].[CDG] | %215
[Q:1/4=129]"^129"!>(![I:staff +1] !>!_B,!p![I:staff -1].[=CDG][Q:1/4=109]"^109"[I:staff +1] !>!A,[I:staff -1].[=G,_B,^C][Q:1/4=89]"^89"[I:staff +1] !>!F,[I:staff -1]!breath!.[E,G,A,]!>)! | %216
[M:6/8][Q:1/4=130]"^130"!p!"^poco meno mosso""_dolce" z!>(! !>!A2- A3!>)! | %217
"^molto expressivo"[Q:1/4=110]"^110"[Q:1/4=110]"^110" B,/ z/"_dolce"!mp!!<(! (!>![gbg'].[gbg'] (2:3:2(!>![gbg'][faf'])!<)! | %218
!>(!{[eg]e'-} (2:3:2(!>![ege'][dfd']-)!>)! [dfd']/) z/ (!>![A,F]C | %219
 !fermata!B,/) !fermata!z/!mp!!<(! (!>![gbg'][gbg'] (2:3:2(!>![gbg'][faf'])!<)! | %220
!>(!{[eg]e'-} (2:3:2(!>![ege'][dfd']-)!>)! [dfd']/) z/ (!>![A,F]=C | %221
"^page 46" z)!<(! (!>![faf'].[ege']!<)!!>(! (2:3:2(!>![dfd'][=ce=c']) | %222
 (2:3:2([_Bd_b][Ada]-)!>)! [Ada]/) !fermata!z/!<(! (!tenuto![F^cf]!tenuto![F=cf]!<)! | %223
!>(! !>![F_Bf][EGe][DFd]"^poco  rit"[Q:1/4=104]"^104" (2:3:2[=CE=c]!>)![DBd] | %224
[Q:1/4=119]"^a Tempo""_dolce"!mp![Q:1/4=110]"^110"{[EG]e-} (2:3:2([EGe][Dd]-) [Dd]/) z/!>(! x2!>)! | %225
 z!mp![Q:1/4=108]"^108"!<(! (!>![g_bg'].[a=c'a']!<)!!>(! (2:3:2(!>![=fa=f']"_rit"[_eg_e'])!>)! | %226
[Q:1/4=119]"_a Tempo"[Q:1/4=104]"^104"{[=c_e]=c'-} (2:3:2(!>![cec'][_Bd_b]-) [Bdb]/) z/[K:bass] (!>![=F,D]_A, | %227
"_rit" !fermata!_G,/) !fermata!z/[K:treble]!mp!!8va(!!<(! (!>![_b_d'_b'].[=c'_e'=c'']!<)!!>(! (2:3:2(!>![_ac'_a'][_gb_g'])!8va)! | %228
[Q:1/4=102]"^102"{[_e_g]_e'-} (2:3:2(!>![ege']!>)!"_rit"[_d=f_d']-) [dfd']/)!mp! z/ (!>![_A,=F]=C | %229
 z)"_poco         à        poco         rit."!mp![Q:1/4=100]"^100"!<(! (!>![=f_a=f'][g_bg']!<)!!>(! (2:3:2(!>![_eg_e'][_df_d'])!>)! | %230
{[_Bd^f]_b-} (2:3:2(!>![Bdfb][Adfa]-) [Adfa]/)!p! z/ !>!^F2 | %231
 z!mp![Q:1/4=96]"^96"!>(! (!tenuto![A=ca]!tenuto![=G_B=g][Q:1/4=90]"^90" (2:3:2(!tenuto![FAf]!breath!!fermata![EGe]))!>)! | %232
[Q:1/4=119]"^119"[Q:1/4=119]"^a Tempo" z!pppp! ([G=Bd]F [GBd]F[GBd] | %233
[M:3/4][Q:1/4=109]"^109" F2 [GBd]2 F2)"_""_" | %234
[M:6/8][Q:1/4=119]"^119" z!<(! ([Ade]G [Ade]G[Ade]!<)! | %235
[M:3/4][Q:1/4=109]"^109"!pp!!>(! G2 [Ade]2 G2)!>)!"_" | %236
[M:6/8][Q:1/4=114]"^114" z!pp! ([G=Bd]F [GBd]F[GBd] |[M:3/4][Q:1/4=104]"^104" F2 [GBd]2 F2)"_" | %238
[M:6/8][Q:1/4=114]"^114""^page 47" z!pp!!<(! ([Gd_e=f]=c [Gdef]c[Gdef]!<)! | %239
[M:3/4][Q:1/4=104]"^104"!p!!>(! =c2 [Gd_e=f]2 c2)!>)! | %240
[M:6/8][Q:1/4=119]"^119" z!pp! ([GBd]^F"_rit"[Q:1/4=109]"^109"!>(! [GBd]F[GBd] | %241
[M:3/4] F2 [GBd]2 F2!>)!"_" | %242
[M:6/8][Q:1/4=119]"^109" x3/4 x/4"^expressivo e meno mosso"!mp!!<(! !tenuto!=E!tenuto!E (2:3:2!tenuto!E!tenuto!E!<)! | %243
[Q:1/4=109]"^90""_riten" (4:6:3E !>!E2 D |[Q:1/4=119]"^a Tempo"{_B,=CB,} A,6-) | %245
[M:3/4] A,4 x2"_" | %246
[M:6/8]!f! x3/4 x/4"^bien en dehors \nsans brusquerie""_rit"!<(! !tenuto!A!tenuto!A (2:3:2!tenuto!A!tenuto!A | %247
 (4:6:3A!<)! !>!A2!>(! G!>)!"_" |[Q:1/4=119]"^a Tempo"!mf!{_E=FE} D6- |[M:3/4] D4 x2"_" | %250
[M:6/8] z (B[Fc] B"_rit"[Fc]B) |[M:3/4] [cf]2 B2!ppp! !tenuto![fc']3/2 !fermata!z/ | %252
[M:6/8][Q:1/4=99]"^99"!pppp![Q:1/4=180]"^Quasi andante"!>(! ([bf'a']d'[bf'a'] d'[bf'a']d' | %253
 !fermata![bf'a']!fermata!d'!fermata![bf'a'] !fermata!d'!fermata![bf'a']!>)!!pppp!!breath!!fermata!d') || %254
!f![Q:1/4=180]"^a Tempo"!8va(! !>![a'd''a''].=c''.d'' .[e'b'e''].d''.c''!8va)! | %255
 .[d'a'd''].=c'.d'"_dim." .[ebe'].d'.c' | .[dad'] .=c.d .[EBe].d.c | .[DAd].=C.D .[E,B,E].D.C | %258
 .[D,A,D] z2 z2 z | z6 | z6 | z z2!ppp! .[Acga] z2 | .[dfad'] z2 z2 z |] %263
V:2
 z (GF EDC |[M:3/4] B,) z .[G,B,D] z .[G,C] z |[M:6/8] z (GF EDC | %3
[M:3/4] B,) z .[G,B,D] z .[G,C] z |[M:6/8] z (BA GFD |[M:3/4] B,) z .[B,DG] z .[CG] z | %6
[M:6/8] z (BA GFD |[M:3/4] B,) z .[B,DG] z .[CG] z |[M:6/8] z (dB) (^cA) .F | %9
[M:3/4] G z .[Gd] z .[Gc] z |[M:6/8] z (dB) (^cA) .F |[M:3/4] G z .[Gd] z .[Gc] z | %12
[M:6/8] z A-A/ z/ x (dc/) z/ |[M:3/4] x6 |[M:6/8] z A-A/ z/ x (dc/) z/ |[M:3/4] x6 |[M:6/8] x6 | %17
[M:3/4] x6 |[M:6/8] aga bag |[M:3/4] x6 |[M:6/8] ab=c' bag |[M:3/4] x6 |[M:6/8] agf ed=c | %23
[M:3/4] x6 |[M:6/8] agf ed=c | x6 |[M:6/8] agf ed=c | z (GE/) z/ z (!>!D^C/) z/ | x6 | %29
 z (GE/) z/ z (!>!D^C/) z/ | x6 | z (GE/) z/ z (!>!D^C/) z/ | x6 | x6 | x6 | x6 | %36
[K:bass] z G,E,/ z/ z E,D,/ z/ |[M:3/4] x6 |[M:6/8] z G,E,/ z/ z E,D,/ z/ |[M:3/4] x6 | %40
[M:6/8] z (G,^F,/) z/ z (G,A,/) z/ |[M:3/4] x6 |[M:6/8][K:treble] z (=FE/) z/ z (G,=C/) z/ | %43
[M:3/4] x6 |[M:6/8][K:bass] z G,=C/ z/ z C^E/ z/ | z (B,=C/) z/ z (G,B,/) z/ | %46
 z (G,=C/) z/ z (E,F,/) z/ |[M:3/4] x6 |[M:6/8][K:treble] x6 |[M:3/4] (B,E) B,^D (ED/) z/ | %50
[M:6/8] x6 |[M:3/4] (G=c) (ef) (gf/) z/ |[M:6/8] x6 |[M:3/4] x11/2 z/ | %54
[M:6/8] d=c!<(!d [Gd] z G!<)! |[M:3/4] (FG) (FE) B, z |[M:6/8] x6 |[M:3/4] x6 | %58
[M:6/8][K:bass] !>!G,.F,.G, !>!G,.F,.G, |[M:3/4] x6 |[M:6/8] !>!D,.=C,.D, .C,.D,.C, | %61
[M:3/4][K:treble] x6 |[M:6/8][K:bass] !>!D,.=C,.D, .C,.D,.C, |[M:3/4][K:treble] x6 | %64
[M:6/8][K:bass] !>!D,.=C,.D, .C,.D,.C, | x6 |[K:treble] x6 |[M:3/4] x6 |[M:6/8] z (=cB AGF | %69
[M:3/4] E) z .[=CEG] z .[CF] z |[M:6/8] z (=cB AGF |[M:3/4] E) z [=CEG] z [CF] z |[M:6/8] x6 | %73
[M:3/4] x6 |[M:6/8] x6 |[M:3/4] x6 |[M:6/8] x6 |[M:3/4] x6 |[M:6/8] x6 |[M:3/4] x6 |[M:6/8] x6 | %81
[M:3/4] x6 |[M:6/8] x6 |[M:3/4] x6 |[M:6/8] x6 |[M:3/4] x6 |[M:6/8] x6 |[M:3/4] x6 |[M:6/8] x6 | %89
 x6 | x6 | x6 | z"^112"!pp! [E,A,DE]C [E,A,DE]C[E,A,DE] |[M:3/4] C2 [E,A,DE]2 C3/2 z/ | %94
[M:6/8] z ([E,DE]^G, [E,DE]G,[E,DE]) |[M:3/4] x6 |[M:6/8] x6 |[M:3/4] x6 |[M:6/8] x6 |[M:3/4] x6 | %100
[M:6/8] x6 |[M:3/4] x6 |[M:6/8] x6 | x6 | (2:3:2z [E,E] [A,C][E,E][A,C] | %105
[M:3/4] ([E,E]2 [A,C]2 [E,E]3/2) z/ |[M:6/8] x6 | x6 | (2:3:2z [E,E] [A,=C][E,E][A,C] | %109
[M:3/4] ([E,E]2 [A,=C]2 !tenuto![EAe]3/2) z/ |[M:6/8] x6 | x6 | (2:3:2z [E,E] [A,=C][E,E][A,C] | %113
[M:3/4] ([E,E]2 [A,=C]2 !tenuto![EAe]3/2) z/ |[M:6/8] x6 | x6 | %116
 (2:3:2z!pp! ([E,E] [A,^C][E,E][A,C] |[M:3/4] ([E,E]2) [A,C]2 [EAe]3/2) z/ |[M:6/8] x6 | x6 | %120
 (2:3:2z"^change flag to beam""^116"!p! ([=C=c] [=FA][Cc][FA]) | %121
[M:3/4] ([=C=c]2!p!!>(! [=FA]2 .[Be])!>)! z |[M:6/8] x6 | x6 | %124
 (2:3:2z!mp!"^add tie""^116" ([A,GA] C[A,GA]C) | %125
[M:3/4] ([A,GA]2 C2!p! !tenuto![Ae]3/2) !fermata!z/ |[M:6/8] x6 | x6 | %128
 (2:3:2z"^116" ([E,E] [A,C][E,E][A,C]) | [E,E]2 [A,C]2!pp!"^108" [EAe]3/2 z/ |[M:6/8] x6 | x6 | %132
 (2:3:2z"^116" ([E,E] [A,^C][E,E][A,C]) | %133
[M:3/4] ([E,E]2"^110" [A,C]2!pp! !tenuto!!fermata![EAe]3/2) !fermata!z/ | %134
[M:6/8] [E,^G,DE]3- [E,G,DE] z2 | x6 | (2:3:2z!p! ([EAe] c[EAe]c) | %137
[M:3/4] ((!>![EAe]2 =c2))"^112" [Aea]3/2 z/ |[M:6/8] x6 | x6 | (2:3:2z!p! ([=A,_G=A] =C[A,GA]C) | %141
[M:3/4] ([=A,_GA]2 =C2 [=F=c=f]3/2) z/ |[M:6/8] x6 | x6 | (2:3:2z"^116"!pp! [=C=E_B] =F[CEB]F | %145
[M:3/4] [=CE_B]2 =F2 [F=c=f]3/2 z/ |[M:6/8] x6 | x6 || z (_G=F _E_D=C | %149
[M:3/4] _B,) z .[_G,_B,_D] z .[G,=C] z |[M:6/8] z (_G=F _E_D=C | %151
[M:3/4] _B,) z .[_G,B,_D] z .[G,=C] z |[M:6/8] z _B_A _G=F_D |[M:3/4] _B, z .[B,_D_G] z .[=CG] z | %154
[M:6/8] z _B_A _G=F_D |[M:3/4] _B, z .[B,_D_G] z .[=CG] z |[M:6/8] x _d_B =c_A=F | %157
[M:3/4] _G z .[_G_d] z .[G=c] z |[M:6/8] z _d_B =c_A =F |[M:3/4] _G z .[_G_d] z .[G=c] z | %160
[M:6/8] z _g_e/ z/ z x3/2 z/ |[M:3/4] x6 |[M:6/8] z _g_e/ z/ z x3/2 z/ |[M:3/4] x6 | %164
[M:6/8] x _D_A, ._E.D._C |[M:3/4] =F z [_A,F] z [C_G] z |[M:6/8] [_C=F] _d_A ._e.d._c | %167
[M:3/4] =f z [_Af] z [c_g] z | [_c=f] z [c_g] z [cf] z | .[_c_g] z .[c=f] z .[cg] z | %170
 [_c=f]2 [c_g]2 [cf]2 | [_c_g]2 [c=f]2 [cg]2 |[M:6/8] x6 |[M:3/4] (GD) G2 ([dg]_B) |[M:6/8] x6 | %175
[M:3/4] (GD) G2 [dg]_B |[M:6/8] x6 |[M:3/4] (=G=D) G2 ([dg]_B) |[M:6/8] x6 |[M:3/4] G2 =F2 =c2 | %180
[M:6/8] x6 |[M:3/4] (AE) A2 ([ea]=c) |[M:6/8] x6 |[M:3/4] G2 [GA]2 [=cd]2 |[M:6/8] x6 | %185
[M:3/4] (BF) B2 (fd) |[M:6/8] x6 |[M:3/4] [=FA]2 A2 d2 |[M:6/8] x6 | [ea] (AE) (^G2 e) | %190
 x2 [Ae] [Be]cd | [ea] AE (^G2 e) | x2 [ce] .[df].[e=g].[f=a] | x6 | d2 [da] (ag) [d_b] | %195
 d2 [da] (ag) [d_b] | d2 [da]!8va(! x3 | x6 | x6 | x6 | x!8va)! x5 | x6 | x6 | x6 | x6 | %205
 (2:3:2([GA]F-) F/ z/ (DA) | x6 | x6 | x6 |[M:3/4] x6 |[M:6/8] x6 |[M:3/4] x6 |[M:6/8] x6 | %213
[M:3/4] x6 | x6 | x6 |[M:6/8] x (GF EDC) | x6 | x6 | x6 | x6 | %221
 !fermata!_B,/!mp! !fermata!z/ z2 z2 z | x6 | x6 | x4 (!>![A,F]^C | %225
 !fermata!=C/) !fermata!z/ z2 z2 z | x4[K:bass] x2 | x[K:treble]!8va(! x5!8va)! | x6 | %229
 !fermata!=B,/ !fermata!z/ z2 z2 z | x4 ^C=C | !fermata!_B,/ !fermata!z/ z x4 | x6 |[M:3/4] x6 | %234
[M:6/8] x6 |[M:3/4] x6 |[M:6/8] x6 |[M:3/4] x6 |[M:6/8] x6 |[M:3/4] x6 |[M:6/8] x6 |[M:3/4] x6 | %242
[M:6/8] z x x4 | x6 | (2:3:3x/ x/!<(! ([A,A] D[A,A]D)!<)! |[M:3/4] ([A,A]2 D2 [Aa]3/2) z/ | %246
[M:6/8] z x x4 | x6 | (2:3:3x/ x/ ([A,A] D[A,A]D) |[M:3/4] ([A,A]2 D2 !tenuto![Fc]3/2) z/ | %250
[M:6/8] x6 |[M:3/4] x6 |[M:6/8] x6 | x6 ||!8va(! x6!8va)! | x6 | x6 | x6 | x6 | x6 | x6 | x6 | %262
 x6 |] %263
V:3
"_"!mf!!<(!!ped! D,,6-!<)! |[M:3/4] A,,!ped-up! z!mp! .E, z .A, z | %2
[M:6/8]"_"!ped!!<(! D,,6-!<)! |[M:3/4] A,,!ped-up! z .E, z .A, z |[M:6/8]"_"!ped! D,,6- | %5
[M:3/4] A,,!ped-up! z .E, z .A, z |[M:6/8]"_"!ped! D,,6- |[M:3/4] A,,!ped-up! z .E, z .A, z | %8
[M:6/8]"_"!<(! D,,A,,=C, D,F,=C!<)! |[M:3/4] B, z E z E z |[M:6/8]"_"!<(! D,,A,,=C, D,F,=C!<)! | %11
[M:3/4] .B, z .E z .E z |[M:6/8][K:treble]"_" z2 z !>!f2 z |[M:3/4] !>!B z .[=CG] z .[A,EA] z | %14
[M:6/8]"_" z2 z f2 z |[M:3/4] !>!B z .[=CG] z .[A,EA] z |[M:6/8]!ped! x6!ped-up! | %17
[M:3/4]!ped! z2!ped-up! x4 |[M:6/8]!ped! (D!ped-up!Be fge) |[M:3/4]!ped! z2!ped-up! x4 | %20
[M:6/8]!ped! (D!ped-up!df geb) |[M:3/4]!ped! z2!ped-up! x4 |[M:6/8]!ped! .D!ped-up!.E.d .=c.A.e | %23
[M:3/4]!ped! z2!ped-up! x4 |[M:6/8]!ped! .D!ped-up!.E.d .=c.A.e |!ped! z2!ped-up! x4 | %26
[M:6/8]!ped! .D!ped-up!.E.d .=c.A.e |[K:bass]!ff!"_" z2 z !>!F2 z | %28
!ped! (.G,,!ped-up!.D,.E, .=F,.G,.E,) |"_" z2 z !>!^F2 z | (.G,,.D,.E, .=F,.G,.E,) | %31
"_" z2 z !>!^F2 z | (G,,D,E, =F,G,E, | =F,G,E, F,G,A,) | ._B,.=C.A, .B,.G,.A, | %35
 .=F,.G,.E, .F,.D,._B,, |"_" z2 z !>!^F, z2 |[M:3/4]!ped! z2!ped-up! .=F,, z .G,, z | %38
[M:6/8]"_" z2 z !>!^F, z2 |[M:3/4]!ped! z2!ped-up! .=F,, z .G,, z | %40
[M:6/8]!mf!!ped!!<(! !>!D,!ped-up!.D,!ped-up!.D,!ped! !>!E,.F,.G,!<)! | %41
[M:3/4]!f!!ped! D, z z2!ped-up! z2 |[M:6/8]!mf!!ped!!<(! .A,!ped-up!.G,.A, .B,.A,.G,!<)! | %43
[M:3/4]!f!!ped! B,,!ped-up! z z2 z2 |[M:6/8]!mf!!ped! .=C!ped-up!.A,.B,!>(! .G,.A,.^F, | %45
"_" .A,.F,.G, .E,.F,.D, |"_" .F,.E,.F, .E,.D,.=C,!>)! |[M:3/4]!ped! B,,, z z2!ped-up! z2 | %48
[M:6/8]!ped! .^C!ped-up!.^F,!<(!.C .C.^D.E!<)! | %49
[M:3/4]!ped! (B,,^C)!ped-up!!<(! (^DB,) (G^F/)!<)! z/ | %50
[M:6/8][K:treble]!ped! =C!ped-up!.D.E .F.A.F |[M:3/4] (B,^A) (=cd) (e^d/) z/ | %52
[M:6/8]!ped! !>!c!ped-up!.^d.c .c.d.c |[M:3/4]"_" (!>!e^d)"_" (!>!cd)"_" (!>!^AB/) z/ | %54
[M:6/8]!ped! !>!^A!ped-up!.G.A !>!A.=c.e |[M:3/4]"_" (!>!BE)"_" (!>!^DC)"_" (!>!ED/) z/ | %56
[M:6/8][K:bass]!ped! !>!C!ped-up!.^D.C !>!C.D.C | %57
[M:3/4]"_"!>(! (!>!E^D)"_" (!>!=CB,)"_" (!>!G,F,)!>)! | %58
[M:6/8]!ped! !>!^A,!ped-up!.E,.A, !>!A,.E,.A, |[M:3/4]"_" (!>!^A,F,) (!>!E,^D,) (!>!=C,B,,) | %60
[M:6/8]!ped! B,,,!ped-up!.^A,,.A,, .E,.A,,.E, | %61
[M:3/4]!ped! z2!ped-up!"_"!mp! .[=F,,=C,=F,] z"_" .[B,,^F,] z | %62
[M:6/8]!ped! B,,,!ped-up!.^A,,.A,, .E,.A,,.E, | %63
[M:3/4]!ped! z2!ped-up!"_""_"!p! [=F,,=C,=F,] z"_""_" [B,,^F,] z | %64
[M:6/8]!ped! !>!B,,,!ped-up!.^A,,.A,, .E,.A,,.E, | !>!D,.=C,.D, .E,.G,.^A, | %66
[K:treble] !>!D.=C.D .E.G.^A | %67
[M:3/4][K:bass]"_" z2"_""^add staccato" .[^F,=C^F] z"_" .[B,,F,B,] z | %68
[M:6/8]"_"!ped! G,,6-!ped-up! |[M:3/4] D, z .A, z .D z |[M:6/8]"_"!mf!!ped! G,,6-!ped-up! | %71
[M:3/4] D, z A, z D z |[M:6/8]"_"!mf! (G,,C,B, =CDF) |[M:3/4]"_" (!>!G,,D,) (=CA,) (B,G) | %74
[M:6/8] (G,A,E)[K:treble] (GAe) |[M:3/4][K:bass] (G,,D,) (=CA,) (B,G) | %76
[M:6/8]"_" (G,,E,G, A,=CG) |[M:3/4]"_" (G,,D,) (=CA,) (B,G) |[M:6/8]"_" (G,,E,G, A,=CG) | %79
[M:3/4]"_" (B,D,)"_" (=F,B,)"_" (^GB,) |[M:6/8]"_" (A,,E,C DE^G) | %81
[M:3/4]"_" (A,,E,) (DB,) (CA) |[M:6/8]"_" (A,B,F)[K:treble]"_" (ABf) | %83
[M:3/4][K:bass]"_" (A,,E,) (DB,) (CA) |[M:6/8]"_" (G,,D,B,)[K:treble]"_" (G,DB) | %85
[M:3/4][K:bass]"_" (A,,E,) (DB,) (CA) |[M:6/8]"_" (F,,C,G,)"_" (F,CF) | %87
[M:3/4]"_" (B,,F,) (EC) (D[K:treble]d) |[M:6/8][K:bass]"_" (^G,,^D,^B,)"_" (^G,^DA) | %89
[K:treble]"_" (!>!^GE) (F ^DCA,) |[K:bass]"_" (^D,,C,A,)"_" (^D,CA) | %91
 (^G,,^D,^B,)[K:treble] (^G,^D^B) | %92
[K:bass]"_2  "!ped! [E,,-A,,]!ped-up!!pp!!<(! A,,E,, A,,E,,A,,!<)! | %93
[M:3/4]!>(! (E,,2 A,,2 E,,3/2) z/!>)! | %94
[M:6/8]"_2  "!p!!ped! z!pp!!<(! (E,,B,, E,,B,,E,,)!ped-up!!<)! | %95
[M:3/4]!>(! (B,,2 E,,2 B,,3/2) z/!>)! | %96
[M:6/8]"_"!p!!ped!!<(! z!pp! (A,,E,, A,,E,,A,,)!ped-up!!<)! | %97
[M:3/4]!>(! (E,,2 A,,2 E,,3/2) z/!>)! | %98
[M:6/8]"_"!p!!ped! z!pp!!<(! (D,,=G,, D,,G,,D,,)!ped-up!!<)! | %99
[M:3/4]!>(! (G,,2 D,,2 G,,3/2) z/!>)! | %100
[M:6/8]"_"!p!!ped! z!pp!!<(! (A,,E,, A,,E,,A,,)!ped-up!!<)! | %101
[M:3/4]!>(! (E,,2 A,,2 E,,3/2) z/!>)! |[M:6/8]"_" z!p! ([D,E,]^G, [D,E,]G,[D,E,] | %103
 ^G,[D,E,D]G,)[K:treble] (2:3:2[EF][de] |[K:bass]"_" (2:3:2x[K:treble]!pp! (^G FGF) | %105
[M:3/4] (^G2[K:bass][K:treble] F2 G3/2) z/ | %106
[M:6/8][K:bass]"_" z!p! ([D,E,D]^G, [D,E,D]G,[D,E,D]) | (^G,[D,E,D]G,)[K:treble] (2:3:2[EF][de] | %108
[K:bass]"_" (2:3:2z[K:treble]!pp! (=G =FGF) | %109
[M:3/4] (G2[K:bass][K:treble] =F2 !tenuto![E=c]3/2) z/ | %110
[M:6/8][K:bass]"_" z!p! ([=F,G,D]_B, [F,G,D]B,[F,G,D] | _B,[F,=G,D]!p!B, (2:3:2[F,G,D][B,EG]) | %112
"_" (2:3:2z[K:treble]!pp! (G =FGF |[M:3/4] (G2)[K:bass][K:treble] =F2 [E=c]3/2) z/ | %114
[M:6/8][K:bass]"_" z!p! ([=F,G,E]_B, [F,G,E]B,[F,G,E] | %115
 _B,[=F,G,E]B,) (2:3:2([F,G,E][K:treble][DE^G]) |[K:bass]"_" (2:3:2z[K:treble] (^G ^FGF) | %117
[M:3/4] (^G2[K:bass][K:treble] F2 [Ec]3/2) z/ | %118
[M:6/8][K:bass]"_""_"!f!!ped! z[K:treble]!mp! ([_B,D_B]E [B,DB]E[B,DB]!ped-up! | %119
 E[K:bass][K:treble][_B,D_B]E) (2:3:2([B,DB][Bde]) | %120
[K:bass]"_""_"!f! (2:3:2z[K:treble]!ped-up!!p!!ped! ([A,G] E[A,G]E) | %121
[M:3/4]!mp! ([A,G]2[K:bass][K:treble]!p! E2!ped-up!!pp!!ped! .[G=c]) z | %122
[M:6/8][K:bass]"_""_"!mf! A,,,6-[K:treble] | (7:6:2x[K:bass]"_" A,,,6[K:treble] | %124
[K:bass]"_""_"!mf! A,,,6-[K:treble] |[M:3/4] (=F2[K:bass][K:treble] E2 !tenuto![E^c]3/2) z/ | %126
[M:6/8][K:bass]!mp!"^add bass clef""_" A,,,6- |!>(! A,,,6[K:treble]!>)! | %128
[K:bass]"_""_" A,,,6-[K:treble] | ^G2[K:bass][K:treble] F2 !tenuto![E^c]3/2 z/ | %130
[M:6/8][K:bass]"_""_"!ped! z[K:treble]!pp! ([=A,_A]_B, [=A,_A]B,!ped-up![=A,_A] | %131
 D[K:bass][K:treble]=A,_B, _A)B,A |[K:bass]"_""_""_add duplet" A,,,6-[K:treble] | %133
[M:3/4] (^G2[K:bass][K:treble] F2"_add tenuto" !tenuto![E^c]3/2) z/ | %134
[M:6/8][K:bass]"_"!ped! x ([E,^G,]D[K:treble] E!ped-up!DE | %135
 [^Gd][K:bass][K:treble]EG (2:3:2d[e^g]) | %136
[K:bass][K:bass]"_""_"!mp!!ped! (2:3:2z[K:treble]!p! ([^Gc]!ped-up! F[Gc]F) | %137
[M:3/4][K:treble] (!>![^G=c]2[K:bass][K:treble] ^F2"_" [Ec]3/2) z/ | %138
[M:6/8][K:bass]!mp!"_"!ped! (G,,!p!D,=F, G,D=F)!ped-up! | %139
!mp!"_"!ped! (=C,!p!=G,_B,[K:treble] E=C_B)!ped-up! | %140
[K:bass]"_""_"!mf!!ped! (2:3:2z!p! ([_D=F] =A,[DF]A,)!ped-up! | %141
[M:3/4]"_tidier with bass clef" =F,,6 |[M:6/8][K:bass]!mp!"_" _E,,6 |!mp!"_" _A,,6 | %144
"_" _A,,,6-[K:treble] |[M:3/4] ([_A,_A]2[K:bass][K:treble] _D2 [_A_d]3/2) z/ | %146
[M:6/8][K:bass]"_" _E,,6 |!mp!"_" _A,,6[K:treble] ||[K:bass]!mp!"_" _D,,6 | %149
[M:3/4]"_A and G share a stem" _D,, z ._E, z ._A, z |[M:6/8]"_" _D,,6 | %151
[M:3/4] _D,, z ._E, z ._A, z |[M:6/8]"_" _D,,6 |[M:3/4] _D,, z ._E, z ._A, z | %154
[M:6/8]!p!"_" _D,,6 |[M:3/4] _D,, z ._E, z ._A, z |[M:6/8]"_" (_D,,_A,,_C, _D,=F,_C | %157
[M:3/4] _B,) z _E z x z |[M:6/8]!f!"_" (_D,,_A,,_C, _D,=F,_C |[M:3/4] _B,) z _E z x z | %160
[M:6/8]"_" z2[K:treble] z"^" !>!=f2[K:bass] z |[M:3/4][K:treble] _c z .[=G,=D=G] z .[_A,_E_A] z | %162
[M:6/8][K:bass]"_" z2[K:treble] z"^" !>!=f2[K:bass] z | %163
[M:3/4][K:treble] ._c z .[=G,=D=G] z .[_A,_E_A] z | %164
[M:6/8][K:bass] .[_C,,_C,]!mf!!<(! !>!=F,._C, ._C._A,._E!<)! | %165
[M:3/4]!<(!{_D_E} (D_A,D!<)!!>(! EDA,)!>)! |[M:6/8]"_"!f! ._D[K:treble]!p! =F_C ._c!mp!._A._e | %167
[M:3/4]!<(!{_d_e} (d_Ad!<)!!>(! edA)!>)! |"_" (_d_ed _Ade | _d_Ad _ed"_"A) |!p! (=d_ed _Bde | %171
 d_Bd _edB) |[M:6/8][K:bass]"_"!mp! _E,E,E, =F,G,_A, | %173
[M:3/4]"_" _B,2[K:treble] !>!!tenuto!._B2 !>!!tenuto!._e2 | %174
[M:6/8][K:bass]"_"!<(!{_B,=C} B,_A,B,!<)!"_"!>(! CB,A,!>)! | %175
[M:3/4]"_" _B,2[K:treble] !>!!tenuto!._B2 !>!!tenuto!._e2 | %176
[M:6/8][K:bass]"_"!<(! _B,=C_D!<)!!>(! _ED_C!>)! | %177
[M:3/4]"_" _B,2[K:treble] !>!!tenuto!._B2 !>!!tenuto!._e2 | %178
[M:6/8][K:bass]"_"!<(! _B,=C_D!<)!!>(! _ED"^correct \nB flat to C"C!>)! | %179
[M:3/4]"_" _B,2[K:treble] !>!!tenuto!._B2 !>!!tenuto!._a2 | %180
[M:6/8][K:bass]"_"!mp! =F,F,F, G,=A,_B, | %181
[M:3/4]"_" =C2[K:treble] !>!!tenuto!.=c2 !>!!tenuto!.=f2 | %182
[M:6/8][K:bass]"_"!<(!{=CD} C_B,C!<)!!>(! DCB,!>)! | %183
[M:3/4]"_" =C2[K:treble] !>!!tenuto!.=c2"_" !>!!tenuto!.=f2 |[M:6/8][K:bass]!f! G,G,G, A,B,=C | %185
[M:3/4]"_" D2[K:treble] !>!!tenuto!.d2 !>!!tenuto!.g2 | %186
[M:6/8][K:bass]"_"!<(!{DE} D=CD!<)!!>(! EDC!>)! |[M:3/4]"_" (D2 =F2)[K:treble] !>![EB]2 | %188
[M:6/8][K:bass]!f!"_"!ff! A,,E,C D^GE |"_" z[K:treble] !>!c!>!c!f! (2:3:2!>!c!>!B | %190
[K:bass]"_"[I:staff -1] (3(B/c/B/)A!mf![I:staff +1] x D^GE | %191
"_" z[K:treble]!ff! !>!c!>!c (2:3:2!>!c!>!B | %192
[K:bass]"_"[I:staff -1] (3(B/c/B/)^A!f![I:staff +1] x x3 | %193
 ^A[K:treble]"^strident"!ff! !>!_b!>!b (2:3:2!>!b!>!a | %194
"_"[I:staff -1] (3(!>!a/_b/a/)g[I:staff +1] x!ff! (2:3:2!>!_b!>!a | %195
"_""_"[I:staff -1] (3(!>!a/_b/a/)g[I:staff +1] x!ff! (2:3:2!>!_b!>!a | %196
"_""_""_"[I:staff -1] (3(!>!a/_b/a/)^g[I:staff +1] x!ff! (2:3:2!>!_b!>!_a | %197
 ._b!f!!<(!._a.b .a.b.a!<)! |!fff! .=c'!f!!<(!._b.c' .b.c'.b!<)! | %199
"_"!ped![I:staff -1] d[I:staff +1]=c'_b"_"!ped-up!!ped![I:staff -1] =c[I:staff +1]d'^f'!ped-up! | %200
[K:bass]"_"!fff!!ped! [A,,,A,,]!ff!!<(!A,,D, E,F,G,!ped-up!!<)! | A,2 (A, ^EFA) | %202
[K:treble]{_B=c} B.A.B .=c.B.A | G2 ^E ^FAD/ z/ | !>!_B3 B B2 |[K:bass] (A,,^G,A,!mf! D)(A,F) | %206
"_" G,,[K:treble]"_marcato""^"!f!!<(!!>!D.D .E.F.G!<)! | %207
!ped! (!>![A,A]!mf!D^C[K:bass] A,^E,!tenuto!.F,)!ped-up! | %208
!ped! z!ped-up!!f!!<(! .E,.E, .F,.G,.A,!<)! |[M:3/4]!>(! x6!>)! | %210
[M:6/8]!<(! !>!E,!f!.E,.E, .G,._B,.D!<)! |[M:3/4]!>(! x6!>)! | %212
[M:6/8]!ped! E,!ped-up!!f!!<(!.E,.G, ._B,.D.E!<)! |[M:3/4]!<(! x6!<)! |!ped! x6!ped-up! | %215
!ped! x6!ped-up! |[M:6/8]!mf!"_" z2 z A,,^E,F, | (G,2!ped! D)"_"!ped! z (!>!C[A,G])!ped-up! | %218
"_"!ped! z[K:treble]!mp!!>(! (GF ED/)!>)! z/!ped-up! z | %219
[K:bass]!p! (G,2!ped! D)"_"!ped-up!!ped! z (!>!C[A,G])!ped-up! | %220
!ped! z[K:treble]!mp!!>(! !>!A2- A z2!>)!!ped-up! | %221
[K:bass]"_"!p!!ped! (D,=CD[K:treble] EF!ped-up!G |{GA} (G)F"_"A, FAD) | %223
"_"!ped! (G,D_B ^FB!ped-up!G) |[K:bass]"_" z[K:treble]!ped! (GF ED/) z/!ped-up! z | %225
[K:bass]"_" x[K:treble] (_E[=C_B])[K:bass] x[K:treble] (_E[=CA]) | %226
[K:bass] z[K:treble]!ped! (_ED =C_B,/) z/!ped-up! z | %227
[K:bass]"_" z[K:treble] !>!_G[_E_d][K:bass]"_" z[K:treble] (!>!G[E=c]) | %228
[K:bass]!mf! z[K:treble]!ped! (_G=F _E_D/) z/!ped-up! z | %229
[K:bass]!mp!"_"!f! x[K:treble]!<(! (^C=B, =F=G=B)!<)! | %230
[K:bass]"_" z[K:treble]!mp!!ped! (G^F ED/) z/!ped-up! z | %231
[K:bass]!mp!"_" (G,,_B,D,)"_"!ped! (A,,[K:treble]^C[A,G])!ped-up! | %232
[K:bass]!mp!"_" !fermata!z[K:treble]!ped! ([DA]A, [DA]A,[DA] | %233
[M:3/4] A,2[K:bass][K:treble] [DA]2!ped-up! A,2) |[M:6/8][K:bass]!mp! z[K:treble]!ped! (D_B dBD | %235
[M:3/4] _B2[K:bass][K:treble] f2!ped-up! B2) | %236
[M:6/8][K:bass]!mp! z[K:treble]!ped! ([DA]A, [DA]A,[DA] | %237
[M:3/4] A,2[K:bass][K:treble] [DA]2!ped-up! A,2) | %238
[M:6/8][K:bass]"_"!mp! z[K:treble]!ped! ([_E_B]A, [EB]A,[EB] | %239
[M:3/4] A,2[K:bass][K:treble] [_EA]2!ped-up! A,2) | %240
[M:6/8][K:bass]"_"!mp! z[K:treble]!pp!!ped! ([DA]_A, [DA]A,[DA] | %241
[M:3/4] A,2[K:bass][K:treble] [DA]2!ped-up! A,2) | %242
[M:6/8][K:bass]"_"!mf!!ped! z[K:treble]!pp! _B,D [B,F]D[B,F] | %243
!pp!"_fix tied G:\nremove bass clef\nadd leger line" [D_B]F[DB] (2:3:2(!>![F=c].[Afg])!ped-up! | %244
[K:bass]!mf! (2:3:3x/ x/[K:treble]!ppp! (G FGF) | %245
[M:3/4]!pp! G2[K:bass][K:treble] F2!ppp! [df]3/2 z/ | %246
[M:6/8][K:bass]"_" x3/4 x/4[K:treble] (=C_E [CG]E[CG]) | %247
 ([_E=c][K:bass][K:treble]G!pp![Ec] (2:3:2!>![Ge])!pp![c_ea] | %248
[K:bass]!mf! (2:3:3x/ x/[K:treble]!ppp! (G ^FGF) | %249
[M:3/4]!pp! (G2[K:bass][K:treble] F2!ppp! [Ad]3/2) z/ |[M:6/8]!pppp! (!>!DAd AdA) | %251
[M:3/4] ([da]2 A2 [ad']3/2) !fermata!z/ | %252
[M:6/8]"_" (c'ac'"_rit        e         perdendosi" ac'a | c'ac' ac'a) || %254
"_petite pédale seulement jusq à la fin" !>![d'f'] x x [=c'g'] z2 | .f' z2 .[=cg] z2 | %256
 .f z2 .[=CG] z2 | F z2[K:bass] [=C,G,] z2 | %258
!mp! .F,!f!"_staccatissimo jiocoso e senza pedale" .=C,,!<(!.D,, .E,,.F,,.G,,!<)! | %259
!ff! (!>!A,,!>(!.B,,).G,,{A,,B,,} (!>!A,,.F,,)!>)!!f!.E,, | %260
!<(! .D,, z!<)!!mf!!>(! =C,, (!>!D,,.E,,)!>)!.C,, | .D,,!mp! z2"_" .[A,,A,] z2 | %262
!p!"_" .[D,,D,] z2 z2 z |] %263
V:4
 D,,3 A,,3- |[M:3/4] D,, z x4 |[M:6/8] D,,3 A,,3- |[M:3/4] D,, z x4 |[M:6/8] D,,3 A,,3- | %5
[M:3/4] D,, z x4 |[M:6/8] D,,3 A,,3- |[M:3/4] D,, z x4 |[M:6/8] D,,6- | %9
[M:3/4] D,, z .[E,B,] z .A, z |[M:6/8] D,,6- |[M:3/4] D,, z .[E,B,] z .A, z | %12
[M:6/8][K:treble] D3- D z2 |[M:3/4] x6 |[M:6/8] D3- D z2 |[M:3/4] x6 |[M:6/8] [DA] z2 z2 z | %17
[M:3/4] D z z2 z2 |[M:6/8] D z2 z2 z |[M:3/4] D z z2 z2 |[M:6/8] D z2 z2 z |[M:3/4] .D z z2 z2 | %22
[M:6/8] D z2 z2 z |[M:3/4] D z z2 z2 |[M:6/8] D z2 z2 z | D z z2 z2 |[M:6/8] D z2 z2 z | %27
[K:bass] D,,3- D,, z2 | G,, z2 z2 z | D,,3- D,, z2 | G,, z2 z2 z | D,,3- D,, z2 | %32
 G,,2- G,,/ z/ z2 z | x6 | x6 | x6 | D,,3- D,, z2 |[M:3/4] .=C,, z ._B,,, z .=C,, z | %38
[M:6/8] D,,3- D,, z2 |[M:3/4] .=C,, z ._B,,, z .=C,, z |[M:6/8] [D,,A,,] z2 [D,,A,,] z2 | %41
[M:3/4] x6 |[M:6/8] =C, z2 z2 z |[M:3/4] x6 |[M:6/8] B,,2- B,,/ z/ z2 z | B,,6 | B,,6 |[M:3/4] x6 | %48
[M:6/8] B,,-B,,/ z/ z2 z2 |[M:3/4] B,, z z2 z2 |[M:6/8][K:treble] B, z2 z2 z | %51
[M:3/4] B, z z2 B3/2 z/ |[M:6/8] B z2 z2 z |[M:3/4] B z z2 (GF/) z/ |[M:6/8] B, z2 z2 z | %55
[M:3/4] B, z x4 |[M:6/8][K:bass] B,, z2 z2 z |[M:3/4] B, z z2 z2 |[M:6/8] B,, z2 z2 z | %59
[M:3/4] B,,4- B,, z |[M:6/8] B,,, z2 z2 z |[M:3/4] B,,, z z2 z2 |[M:6/8] B,,, z2 z2 z | %63
[M:3/4] B,,, z z2 z2 |[M:6/8] x6 | x6 |[K:treble] x6 |[M:3/4][K:bass] B,,, z z2 z2 | %68
[M:6/8] G,,3 D,3- |[M:3/4] G,, z z2 z2 |[M:6/8] G,,3 D,3- |[M:3/4] G,, z z2 z2 | %72
[M:6/8] G,,3- G,, z2 |[M:3/4] G,,4- G,, z |[M:6/8] G,3[K:treble] G3 |[M:3/4][K:bass] G,,4- G,, z | %76
[M:6/8] G,,3- G,, z2 |[M:3/4] G,,4- G,, z |[M:6/8] G,,3- G,, z2 |[M:3/4] G,, z =F, z E, z | %80
[M:6/8] A,,3- A,, z2 |[M:3/4] A,,4- A,, z |[M:6/8] A,3[K:treble] A3 |[M:3/4][K:bass] A,,4- A,, z | %84
[M:6/8] G,,3[K:treble] =G,3 |[M:3/4][K:bass] A,,4- A,, z |[M:6/8] F,,3 F,3 | %87
[M:3/4] B,,4- B,,[K:treble] z |[M:6/8][K:bass] ^G,,3 ^G,3 |[K:treble] G,6 |[K:bass] ^D,,3 ^D,3 | %91
 ^G,,3[K:treble] ^G,3 |[K:bass] A,,,6- |[M:3/4] A,,,6 |[M:6/8] A,,,6- |[M:3/4] A,,,6 | %96
[M:6/8] A,,,6- |[M:3/4] A,,,6 |[M:6/8] =G,,,6- |[M:3/4] =G,,,6 |[M:6/8] A,,,6- |[M:3/4] A,,,6 | %102
[M:6/8] A,,,6- | A,,,6[K:treble] |[K:bass] A,,,6-[K:treble] | %105
[M:3/4] (7:6:2x[K:bass]"_" A,,,6[K:treble] |[M:6/8][K:bass] A,,,6- | A,,,6[K:treble] | %108
[K:bass] A,,,6-[K:treble] |[M:3/4] (7:6:2x[K:bass]"_" A,,,6[K:treble] |[M:6/8][K:bass] A,,,6- | %111
 A,,,6 | A,,,6-[K:treble] |[M:3/4] (7:6:2x[K:bass]"_" A,,,6[K:treble] |[M:6/8][K:bass] A,,,6- | %115
 A,,,6[K:treble] |[K:bass] A,,,6-[K:treble] |[M:3/4] (7:6:2x[K:bass]"_" A,,,6[K:treble] | %118
[M:6/8][K:bass] A,,,6-[K:treble] | (7:6:2x[K:bass]"_" A,,,6[K:treble] |[K:bass] A,,,6-[K:treble] | %121
[M:3/4] (7:6:2x[K:bass]"_" A,,,6[K:treble] | %122
[M:6/8][K:bass] z[K:treble]!mp! ([_B,DA]E [B,D=F]E[B,DA] | %123
 E[K:bass][K:treble][_B,D=F]E (2:3:2([B,DA])[_Bde]) |[K:bass] (2:3:2z[K:treble]!mp! (=F EFE) | %125
[M:3/4] (7:6:2x[K:bass]"_" A,,,6[K:treble] |[M:6/8][K:bass] z!p! [E,^F]^G, [E,F]G,[E,F] | %127
 (^G,[E,F]G,) (2:3:2([E,F][K:treble]!pp![E^Gde]) |[K:bass] (2:3:2z[K:treble]!pp! (^G FGF) | %129
 (7:6:2x[K:bass]"_" A,,,6[K:treble] |[M:6/8][K:bass] A,,,6-[K:treble] | %131
 (7:6:2x[K:bass]"_" A,,,6[K:treble] |[K:bass] (2:3:2z[K:treble]!pp! (^G ^FGF) | %133
[M:3/4] (7:6:2x[K:bass]"_" A,,,6[K:treble] |[M:6/8][K:bass] [A,,,E,,]6-[K:treble] | %135
 (7:6:2x[K:bass]"_" [A,,,E,,]6[K:treble] |[K:bass][K:bass] A,,,6-[K:treble] | %137
[M:3/4][K:treble] (7:6:2x[K:bass]"_" A,,,6[K:treble] |[M:6/8][K:bass] =G,,6 | =C,6[K:treble] | %140
[K:bass] =F,,6- |[M:3/4] ([_D=F]2 A,2 [=CA]3/2) z/ |[M:6/8][K:bass] (_E,,!p!_D,_E, =C_B,_D) | %143
 (_A,,!p!_E,=C =G,_A,_A) | (2:3:2z[K:treble]!p! ([_A,_A] _D[A,A]D) | %145
[M:3/4] (7:6:2x[K:bass]"_" _A,,,6[K:treble] |[M:6/8][K:bass] (_E,,!p!_D,_E, _G,E,_D) | %147
 (_A,,!p!_E,=C[K:treble] _G=C_A,) ||[K:bass] (_D,,3- _A,,2- =F, | %149
[M:3/4] [_A,,_G,]) z ._E, z ._A, z |[M:6/8] (_D,,3- _A,,2- =F, | %151
[M:3/4] [_A,,_G,]) z ._E, z ._A, z |[M:6/8] (_D,,3- _A,,2- =F, | %153
[M:3/4] [_A,,_G,]) z ._E, z ._A, z |[M:6/8] (_D,,3- _A,,2- =F, | %155
[M:3/4] [_A,,_G,]) z ._E, z ._A, z |[M:6/8] _D,,6- |[M:3/4] D,, z .[_E,_B,] z .[_A,_E] z | %158
[M:6/8] _D,,6- |[M:3/4] D,, z .[_E,_B,] z .[_A,_E] z | %160
[M:6/8] [_D,,_D,]3-[K:treble] (4:3:3x[K:bass] [D,,D,] z2 |[M:3/4][K:treble] x6 | %162
[M:6/8][K:bass] [_D,,_D,]3-[K:treble] (4:3:3x[K:bass] [D,,D,] z2 |[M:3/4][K:treble] x6 | %164
[M:6/8][K:bass] x6 |[M:3/4] x6 |[M:6/8] x[K:treble] x5 |[M:3/4] x6 | x6 | x6 | _B,6- | B,6 | %172
[M:6/8][K:bass] [_E,,_B,,]3- [E,,B,,] z2 |[M:3/4] _E,6[K:treble] |[M:6/8][K:bass] _E,6 | %175
[M:3/4] _E,6[K:treble] |[M:6/8][K:bass] _E,6 |[M:3/4] _E,6[K:treble] |[M:6/8][K:bass] _D,6 | %179
[M:3/4] =C,6[K:treble] |[M:6/8][K:bass] [=F,,=C,]3- [F,,C,] z2 |[M:3/4] =F,6[K:treble] | %182
[M:6/8][K:bass] _E,6 |[M:3/4] D,4[K:treble] D2 |[M:6/8][K:bass] [G,,D,]3- [G,,D,] z2 | %185
[M:3/4] G,6[K:treble] |[M:6/8][K:bass] =F,6 |[M:3/4] E,6[K:treble] |[M:6/8][K:bass] A,,6 | %189
 A,,[K:treble] z2 z2 z |[K:bass] A,,6 | A,,[K:treble] z2 z2 z |[K:bass] =G,,6- | %193
 G,,[K:treble] z2 z2 z | _B,2- B,/ z/ z2 z | _B,2- B,/ z/ z2 z | _B,2- B,/ z/ z2 z | z6 | D6 | %199
 !>!^G3 !>!d3 |[K:bass] x6 | A,"_" A,,2- A,,3 |[K:treble] A, z2 z2 z | (G"_" A,2-) A,2- A,/ z/ | %204
 _BDA,- A,3 |[K:bass] A,,3- A,, x2 | G,,6[K:treble] | x3[K:bass] x3 | A,,, z2 z2 z |[M:3/4] x6 | %210
[M:6/8] A,, z2 z2 z |[M:3/4] x6 |[M:6/8] A,, z2 z2 z |[M:3/4] x6 | A,, z z2 z2 | A,, z z2 z2 | %216
[M:6/8] D,,3- D,, z2 | (G,"_" E,2) A,,3 | D,,3[K:treble] x z2 |[K:bass] (G,"_" E,2) A,,3 | %220
 z[K:treble] (GF ED/) z/ z |[K:bass] G,,6[K:treble] | z2 A,- A,/ z/ z2 | G,2- G,/ z/ z2 z | %224
[K:bass] D,,3[K:treble] x3 |[K:bass] _E,,[K:treble] z2[K:bass] =F,,[K:treble] z2 | %226
[K:bass] _B,,,3[K:treble] x3 |[K:bass] _E,,[K:treble] z2[K:bass] _A,,[K:treble] z2 | %228
[K:bass] _D,,3[K:treble] x3 |[K:bass] (=G,,6[K:treble] |[K:bass] =A,,,3)[K:treble] x3 | %231
[K:bass] G,,3 A,,3[K:treble] |[K:bass] D,,,6-[K:treble] |[M:3/4] (7:6:2x[K:bass] D,,,6[K:treble] | %234
[M:6/8][K:bass] D,,,6-[K:treble] |[M:3/4] (7:6:2x[K:bass] D,,,6[K:treble] | %236
[M:6/8][K:bass] D,,,6-[K:treble] |[M:3/4] (7:6:2x[K:bass] D,,,6[K:treble] | %238
[M:6/8][K:bass] =C,,,6-[K:treble] |[M:3/4] (7:6:2x[K:bass]"_" C,,,6[K:treble] | %240
[M:6/8][K:bass] D,,,6-[K:treble] |[M:3/4] (7:6:2x[K:bass] D,,,6[K:treble] | %242
[M:6/8][K:bass] G,,6-[K:treble] | G,,6 |[K:bass] D,,6-[K:treble] | %245
[M:3/4] (7:6:2x[K:bass] D,,6[K:treble] |[M:6/8][K:bass] !>!=C,,6-[K:treble] | %247
 (7:6:2x[K:bass] =C,,6[K:treble] |[K:bass] D,,6-[K:treble] | %249
[M:3/4] (7:6:2x[K:bass] D,,6[K:treble] |[M:6/8] D6- |[M:3/4] D6 |[M:6/8] d6- | d6- || d z2 x z2 | %255
 x6 | x6 | x3[K:bass] x3 | x6 | x6 | x6 | x6 | x6 |] %263
V:5
 x3 A,,2 F, |[M:3/4] G, z x4 |[M:6/8] x3 A,,2 F, |[M:3/4] G, z x4 |[M:6/8] x3 A,,2 F, | %5
[M:3/4] G, z x4 |[M:6/8] x3 A,,2 F, |[M:3/4] G, z x4 |[M:6/8] x6 |[M:3/4] x6 |[M:6/8] x6 | %11
[M:3/4] x6 |[M:6/8][K:treble] x6 |[M:3/4] x6 |[M:6/8] x6 |[M:3/4] x6 |[M:6/8] x6 |[M:3/4] x6 | %18
[M:6/8] x6 |[M:3/4] x6 |[M:6/8] x6 |[M:3/4] x6 |[M:6/8] x6 |[M:3/4] x6 |[M:6/8] x6 | x6 | %26
[M:6/8] x6 |[K:bass] x6 | x6 | x6 | x6 | x6 | x6 | x6 | x6 | x6 | x6 |[M:3/4] x6 |[M:6/8] x6 | %39
[M:3/4] x6 |[M:6/8] x6 |[M:3/4] x6 |[M:6/8] x6 |[M:3/4] x6 |[M:6/8] x6 | x6 | x6 |[M:3/4] x6 | %48
[M:6/8] x6 |[M:3/4] x6 |[M:6/8][K:treble] x6 |[M:3/4] x6 |[M:6/8] x6 |[M:3/4] x6 |[M:6/8] x6 | %55
[M:3/4] x6 |[M:6/8][K:bass] x6 |[M:3/4] x6 |[M:6/8] x6 |[M:3/4] x6 |[M:6/8] x6 |[M:3/4] x6 | %62
[M:6/8] x6 |[M:3/4] x6 |[M:6/8] x6 | x6 |[K:treble] x6 |[M:3/4][K:bass] x6 |[M:6/8] (x2 x D,2 B, | %69
[M:3/4] =C) z .A, z .D z |[M:6/8] (x2 x D,2 B, |[M:3/4] =C) z A, z D z |[M:6/8] x6 |[M:3/4] x6 | %74
[M:6/8] x3[K:treble] x3 |[M:3/4][K:bass] x6 |[M:6/8] x6 |[M:3/4] x6 |[M:6/8] x6 |[M:3/4] x6 | %80
[M:6/8] x6 |[M:3/4] x6 |[M:6/8] x3[K:treble] x3 |[M:3/4][K:bass] x6 |[M:6/8] x3[K:treble] x3 | %85
[M:3/4][K:bass] x6 |[M:6/8] x6 |[M:3/4] x5[K:treble] x |[M:6/8][K:bass] x6 |[K:treble] x6 | %90
[K:bass] x6 | x3[K:treble] x3 |[K:bass] x6 |[M:3/4] x6 |[M:6/8] x6 |[M:3/4] x6 |[M:6/8] x6 | %97
[M:3/4] x6 |[M:6/8] x6 |[M:3/4] x6 |[M:6/8] x6 |[M:3/4] x6 |[M:6/8] x6 | x3[K:treble] x3 | %104
[K:bass] z[K:treble] x x4 |[M:3/4] x55/64[K:bass] x55/64[K:treble] x257/60 |[M:6/8][K:bass] x6 | %107
 x3[K:treble] x3 |[K:bass] x/6[K:treble] x35/6 |[M:3/4] x55/64[K:bass] x55/64[K:treble] x257/60 | %110
[M:6/8][K:bass] x6 | x6 | x/6[K:treble] x35/6 |[M:3/4] x55/64[K:bass] x55/64[K:treble] x257/60 | %114
[M:6/8][K:bass] x6 | x9/2[K:treble] x3/2 |[K:bass] x/6[K:treble] x35/6 | %117
[M:3/4] x55/64[K:bass] x55/64[K:treble] x257/60 |[M:6/8][K:bass] x[K:treble] x5 | %119
 x55/64[K:bass] x9/64[K:treble] x5 |[K:bass] x/6[K:treble] x35/6 | %121
[M:3/4] x55/64[K:bass] x55/64[K:treble] x257/60 |[M:6/8][K:bass] x[K:treble] x5 | %123
 x55/64[K:bass] x9/64[K:treble] x5 |[K:bass] x3/2[K:treble] x9/2 | %125
[M:3/4] x55/64[K:bass] x55/64[K:treble] x257/60 |[M:6/8][K:bass] x6 | x9/2[K:treble] x3/2 | %128
[K:bass] x3/2[K:treble] x9/2 | x55/64[K:bass] x55/64[K:treble] x257/60 | %130
[M:6/8][K:bass] x[K:treble] x5 | x55/64[K:bass] x9/64[K:treble] x5 |[K:bass] x3/2[K:treble] x9/2 | %133
[M:3/4] x55/64[K:bass] x55/64[K:treble] x257/60 |[M:6/8][K:bass] z x x4[K:treble] | %135
 x55/64[K:bass] x9/64[K:treble] x5 |[K:bass][K:bass] x3/2[K:treble] x9/2 | %137
[M:3/4][K:treble] x55/64[K:bass] x55/64[K:treble] x257/60 |[M:6/8][K:bass] x6 | x3[K:treble] x3 | %140
[K:bass] x6 |[M:3/4] x6 |[M:6/8][K:bass] x6 | x6 | x3/2[K:treble] x9/2 | %145
[M:3/4] x55/64[K:bass] x55/64[K:treble] x257/60 |[M:6/8][K:bass] x6 | x3[K:treble] x3 || %148
[K:bass] x6 |[M:3/4] x6 |[M:6/8] x6 |[M:3/4] x6 |[M:6/8] x6 |[M:3/4] x6 |[M:6/8] x6 |[M:3/4] x6 | %156
[M:6/8] x6 |[M:3/4] x6 |[M:6/8] x6 |[M:3/4] x6 |[M:6/8] x2[K:treble] x7/4[K:bass] x9/4 | %161
[M:3/4][K:treble] x6 |[M:6/8][K:bass] x2[K:treble] x7/4[K:bass] x9/4 |[M:3/4][K:treble] x6 | %164
[M:6/8][K:bass] x6 |[M:3/4] x6 |[M:6/8] x[K:treble] x5 |[M:3/4] x6 | x6 | x6 | x6 | x6 | %172
[M:6/8][K:bass] x6 |[M:3/4] x[K:treble] x5 |[M:6/8][K:bass] x6 |[M:3/4] x2[K:treble] x4 | %176
[M:6/8][K:bass] x6 |[M:3/4] x2[K:treble] x4 |[M:6/8][K:bass] x6 |[M:3/4] x2[K:treble] x4 | %180
[M:6/8][K:bass] x6 |[M:3/4] x2[K:treble] x4 |[M:6/8][K:bass] x6 |[M:3/4] x2[K:treble] x4 | %184
[M:6/8][K:bass] x6 |[M:3/4] x2[K:treble] x4 |[M:6/8][K:bass] x6 |[M:3/4] x4[K:treble] x2 | %188
[M:6/8][K:bass] x6 | x[K:treble] x5 |[K:bass] A,,E,C x3 | x[K:treble] x5 | %192
[K:bass] G,,E,=G, ^A,=GC | x[K:treble] x5 | _B,E_B x3 | _B,E_B x3 | _B,E_B x3 | x6 | x6 | x6 | %200
[K:bass] x6 | x6 |[K:treble] x6 | x6 | x3 D(_BD) |[K:bass] x6 | x[K:treble] x5 | x3[K:bass] x3 | %208
 x6 |[M:3/4] x6 |[M:6/8] x6 |[M:3/4] x6 |[M:6/8] x6 |[M:3/4] x6 | x6 | x6 |[M:6/8] x6 | x6 | %218
 x3/4[K:treble] x/4 !>!A2- A x2 |[K:bass] x6 | D,,6[K:treble] |[K:bass] x3[K:treble] x3 | x6 | x6 | %224
[K:bass] x3/4[K:treble] x/4 A2- A x2 |[K:bass] x[K:treble] x2[K:bass] x[K:treble] x2 | %226
[K:bass] x3/4[K:treble] x/4 =F2- F x2 |[K:bass] x[K:treble] x2[K:bass] x[K:treble] x2 | %228
[K:bass] x3/8[K:treble] x5/8 !>!_A2- A x2 |[K:bass] x[K:treble] x5 | %230
[K:bass] x3/4[K:treble] x/4 A2- A x2 |[K:bass] x4[K:treble] x2 |[K:bass] x[K:treble] x5 | %233
[M:3/4] x55/64[K:bass] x73/64[K:treble] x4 |[M:6/8][K:bass] x[K:treble] x5 | %235
[M:3/4] x55/64[K:bass] x73/64[K:treble] x4 |[M:6/8][K:bass] x[K:treble] x5 | %237
[M:3/4] x55/64[K:bass] x73/64[K:treble] x4 |[M:6/8][K:bass] x[K:treble] x5 | %239
[M:3/4] x55/64[K:bass] x73/64[K:treble] x4 |[M:6/8][K:bass] x[K:treble] x5 | %241
[M:3/4] x55/64[K:bass] x73/64[K:treble] x4 |[M:6/8][K:bass] x[K:treble] x5 | x6 | %244
[K:bass] z x[K:treble] x4 |[M:3/4] x55/64[K:bass] x73/64[K:treble] x4 | %246
[M:6/8][K:bass] x[K:treble] x5 | x55/64[K:bass] x9/64[K:treble] x5 |[K:bass] z x[K:treble] x4 | %249
[M:3/4] x55/64[K:bass] x73/64[K:treble] x4 |[M:6/8] x6 |[M:3/4] x6 |[M:6/8] x6 | x6 || x6 | x6 | %256
 x6 | x3[K:bass] x3 | x6 | x6 | x6 | x6 | x6 |] %263
V:6
 x6 |[M:3/4] x6 |[M:6/8] x6 |[M:3/4] x6 |[M:6/8] x6 |[M:3/4] x6 |[M:6/8] x6 |[M:3/4] x6 | %8
[M:6/8] x6 |[M:3/4] x6 |[M:6/8] x6 |[M:3/4] x6 |[M:6/8] z (ge/) z/ z x3/2 z/ |[M:3/4] x6 | %14
[M:6/8] z (ge/) z/ z x3/2 z/ |[M:3/4] x6 |[M:6/8] x6 |[M:3/4] x6 |[M:6/8] x2 d2 d2 |[M:3/4] x6 | %20
[M:6/8] x6 |[M:3/4] x6 |[M:6/8] x6 |[M:3/4] x6 |[M:6/8] x6 | x6 |[M:6/8] x6 | z !>!A,-A,/ z/ x3 | %28
 x6 | z !>!A,-A,/ z/ x3 | x6 | z !>!A,-A,/ z/ x3 | x6 | x6 | x6 | x6 |[K:bass] x6 |[M:3/4] x6 | %38
[M:6/8] x6 |[M:3/4] x6 |[M:6/8] x6 |[M:3/4] x6 |[M:6/8][K:treble] z =C-C/ z/ x3 |[M:3/4] x6 | %44
[M:6/8][K:bass] x6 | x6 | x6 |[M:3/4] x6 |[M:6/8][K:treble] x6 |[M:3/4] x6 |[M:6/8] x6 | %51
[M:3/4] x6 |[M:6/8] x6 |[M:3/4] x6 |[M:6/8] G z G x3 |[M:3/4] x6 |[M:6/8] x6 |[M:3/4] x6 | %58
[M:6/8][K:bass] x6 |[M:3/4] x6 |[M:6/8] x6 |[M:3/4][K:treble] x6 |[M:6/8][K:bass] x6 | %63
[M:3/4][K:treble] x6 |[M:6/8][K:bass] x6 | x6 |[K:treble] x6 |[M:3/4] x6 |[M:6/8] x6 |[M:3/4] x6 | %70
[M:6/8] x6 |[M:3/4] x6 |[M:6/8] x6 |[M:3/4] x6 |[M:6/8] x6 |[M:3/4] x6 |[M:6/8] x6 |[M:3/4] x6 | %78
[M:6/8] x6 |[M:3/4] x6 |[M:6/8] x6 |[M:3/4] x6 |[M:6/8] x6 |[M:3/4] x6 |[M:6/8] x6 |[M:3/4] x6 | %86
[M:6/8] x6 |[M:3/4] x6 |[M:6/8] x6 | x6 | x6 | x6 | x6 |[M:3/4] x6 |[M:6/8] x6 |[M:3/4] x6 | %96
[M:6/8] x6 |[M:3/4] x6 |[M:6/8] x6 |[M:3/4] x6 |[M:6/8] x6 |[M:3/4] x6 |[M:6/8] x6 | x6 | %104
({B,CB,)} x2 x2 x2 |[M:3/4] x6 |[M:6/8] x6 | x6 |({B,CB,)} x2 x2 x2 |[M:3/4] x6 |[M:6/8] x6 | x6 | %112
({DED)} x2 x2 x2 |[M:3/4] x6 |[M:6/8] x6 | x6 |({_B,=CB,)} x2 x2 x2 |[M:3/4] x6 |[M:6/8] x6 | x6 | %120
({=FGF)} x2 x2 x2 |[M:3/4] x6 |[M:6/8] x6 | x6 |{DED} x2 x4 |[M:3/4] x6 |[M:6/8] x6 | x6 | %128
{B,CB,} x2 x4 | x6 |[M:6/8] x6 | x6 |{_B,=CB,} x2 x4 |[M:3/4] x6 |[M:6/8] z x x4 | x6 | %136
{[Bd]b[Bd]} x2 x4 |[M:3/4] x6 |[M:6/8] x6 | x6 |{[G_B]g[GB]} x2 x4 |[M:3/4] x6 |[M:6/8] x6 | x6 | %144
({[_E_G]_e[EG])} x2 x2 x2 |[M:3/4] x6 |[M:6/8] x6 | x6 || x6 |[M:3/4] x6 |[M:6/8] x6 |[M:3/4] x6 | %152
[M:6/8] x6 |[M:3/4] x6 |[M:6/8] x6 |[M:3/4] x6 |[M:6/8] x6 |[M:3/4] x6 |[M:6/8] x6 |[M:3/4] x6 | %160
[M:6/8] z _A-A/ z/ x (_e_d/) x/ |[M:3/4] x6 |[M:6/8] z _A-A/ z/ x (_e_d/) x/ |[M:3/4] x6 | %164
[M:6/8] x6 |[M:3/4] x6 |[M:6/8] x6 |[M:3/4] x6 | x6 | x6 | x6 | x6 |[M:6/8] x6 |[M:3/4] x6 | %174
[M:6/8] x6 |[M:3/4] x6 |[M:6/8] x6 |[M:3/4] x6 |[M:6/8] x6 |[M:3/4] (=F=C) x2 (_b=e) |[M:6/8] x6 | %181
[M:3/4] x6 |[M:6/8] x6 |[M:3/4] x6 |[M:6/8] x6 |[M:3/4] x6 |[M:6/8] x6 |[M:3/4] x6 |[M:6/8] x6 | %189
 x6 | x6 | x6 | x6 | x6 | x6 | x6 | x3!8va(! x3 | x6 | x6 | x6 | x!8va)! x5 | x6 | x6 | x6 | x6 | %205
 (2:3:1[d-x]2 d/ z/ x2 | x6 | x6 | x6 |[M:3/4] x6 |[M:6/8] x6 |[M:3/4] x6 |[M:6/8] x6 |[M:3/4] x6 | %214
 x6 | x6 |[M:6/8] x6 | x6 | x6 | x6 | x6 | x6 | x6 | x6 | x6 | x6 | x4[K:bass] x2 | %227
 x[K:treble]!8va(! x5!8va)! | x6 | x6 | x6 | x6 | x6 |[M:3/4] x6 |[M:6/8] x6 |[M:3/4] x6 | %236
[M:6/8] x6 |[M:3/4] x6 |[M:6/8] x6 |[M:3/4] x6 |[M:6/8] x6 |[M:3/4] x6 |[M:6/8] x6 | x6 | z x x4 | %245
[M:3/4] x6 |[M:6/8] x6 | x6 | z x x4 |[M:3/4] x6 |[M:6/8] x6 |[M:3/4] x6 |[M:6/8] x6 | x6 || %254
!8va(! x6!8va)! | x6 | x6 | x6 | x6 | x6 | x6 | x6 | x6 |] %263
V:7
 x6 |[M:3/4] x6 |[M:6/8] x6 |[M:3/4] x6 |[M:6/8] x6 |[M:3/4] x6 |[M:6/8] x6 |[M:3/4] x6 | %8
[M:6/8] x6 |[M:3/4] x6 |[M:6/8] x6 |[M:3/4] x6 |[M:6/8] x6 |[M:3/4] x6 |[M:6/8] x6 |[M:3/4] x6 | %16
[M:6/8] x6 |[M:3/4] x6 |[M:6/8] x6 |[M:3/4] x6 |[M:6/8] x6 |[M:3/4] x6 |[M:6/8] x6 |[M:3/4] x6 | %24
[M:6/8] x6 | x6 |[M:6/8] x6 | x6 | x6 | x6 | x6 | x6 | x6 | x6 | x6 | x6 |[K:bass] x6 |[M:3/4] x6 | %38
[M:6/8] x6 |[M:3/4] x6 |[M:6/8] x6 |[M:3/4] x6 |[M:6/8][K:treble] x6 |[M:3/4] x6 | %44
[M:6/8][K:bass] x6 | x6 | x6 |[M:3/4] x6 |[M:6/8][K:treble] x6 |[M:3/4] x6 |[M:6/8] x6 | %51
[M:3/4] x6 |[M:6/8] x6 |[M:3/4] x6 |[M:6/8] x6 |[M:3/4] x6 |[M:6/8] x6 |[M:3/4] x6 | %58
[M:6/8][K:bass] x6 |[M:3/4] x6 |[M:6/8] x6 |[M:3/4][K:treble] x6 |[M:6/8][K:bass] x6 | %63
[M:3/4][K:treble] x6 |[M:6/8][K:bass] x6 | x6 |[K:treble] x6 |[M:3/4] x6 |[M:6/8] x6 |[M:3/4] x6 | %70
[M:6/8] x6 |[M:3/4] x6 |[M:6/8] x6 |[M:3/4] x6 |[M:6/8] x6 |[M:3/4] x6 |[M:6/8] x6 |[M:3/4] x6 | %78
[M:6/8] x6 |[M:3/4] x6 |[M:6/8] x6 |[M:3/4] x6 |[M:6/8] x6 |[M:3/4] x6 |[M:6/8] x6 |[M:3/4] x6 | %86
[M:6/8] x6 |[M:3/4] x6 |[M:6/8] x6 | x6 | x6 | x6 | x6 |[M:3/4] x6 |[M:6/8] x6 |[M:3/4] x6 | %96
[M:6/8] x6 |[M:3/4] x6 |[M:6/8] x6 |[M:3/4] x6 |[M:6/8] x6 |[M:3/4] x6 |[M:6/8] x6 | x6 | x6 | %105
[M:3/4] x6 |[M:6/8] x6 | x6 | x6 |[M:3/4] x6 |[M:6/8] x6 | x6 | x6 |[M:3/4] x6 |[M:6/8] x6 | x6 | %116
 x6 |[M:3/4] x6 |[M:6/8] x6 | x6 | x6 |[M:3/4] x6 |[M:6/8] x6 | x6 | x6 |[M:3/4] x6 |[M:6/8] x6 | %127
 x6 | x6 | x6 |[M:6/8] x6 | x6 | x6 |[M:3/4] x6 |[M:6/8] x6 | x6 | x6 |[M:3/4] x6 |[M:6/8] x6 | %139
 x6 | x6 |[M:3/4] x6 |[M:6/8] x6 | x6 | x6 |[M:3/4] x6 |[M:6/8] x6 | x6 || x6 |[M:3/4] x6 | %150
[M:6/8] x6 |[M:3/4] x6 |[M:6/8] x6 |[M:3/4] x6 |[M:6/8] x6 |[M:3/4] x6 |[M:6/8] x6 |[M:3/4] x6 | %158
[M:6/8] x6 |[M:3/4] x6 |[M:6/8] x6 |[M:3/4] x6 |[M:6/8] x6 |[M:3/4] x6 |[M:6/8] x6 |[M:3/4] x6 | %166
[M:6/8] x6 |[M:3/4] x6 | x6 | x6 | x6 | x6 |[M:6/8] x6 |[M:3/4] x6 |[M:6/8] x6 |[M:3/4] x6 | %176
[M:6/8] x6 |[M:3/4] x6 |[M:6/8] x6 |[M:3/4] x6 |[M:6/8] x6 |[M:3/4] x6 |[M:6/8] x6 |[M:3/4] x6 | %184
[M:6/8] x6 |[M:3/4] x6 |[M:6/8] x6 |[M:3/4] x6 |[M:6/8] x6 | x6 | x6 | x6 | x6 | x6 | x6 | x6 | %196
 x3!8va(! x3 | x6 | x6 | x6 | x!8va)! x5 | x6 | x6 | x6 | x6 | x6 | x6 | x6 | x6 |[M:3/4] x6 | %210
[M:6/8] x6 |[M:3/4] x6 |[M:6/8] x6 |[M:3/4] x6 | x6 | x6 |[M:6/8] x6 | x6 | x6 | x6 | x6 | x6 | %222
 x6 | x6 | x6 | x6 | x4[K:bass] x2 | x[K:treble]!8va(! x5!8va)! | x6 | x6 | x6 | x6 | x6 | %233
[M:3/4] x6 |[M:6/8] x6 |[M:3/4] x6 |[M:6/8] x6 |[M:3/4] x6 |[M:6/8] x6 |[M:3/4] x6 |[M:6/8] x6 | %241
[M:3/4] x6 |[M:6/8] x6 | x6 | (3x/ x/ x/ x2- x3- |[M:3/4] x6 |[M:6/8] x6 | x6 | (3x/ x/ x/ x2- x3 | %249
[M:3/4] x6 |[M:6/8] x6 |[M:3/4] x6 |[M:6/8] x6 | x6 ||!8va(! x6!8va)! | x6 | x6 | x6 | x6 | x6 | %260
 x6 | x6 | x6 |] %263

